!!!!SEGMENT: pl-sa--368-a-viii-8_anonim--anioll-z-nieba-gdy-zalspiewall.krn
!!!cenid: 17xx:1248
!!!COM: Anonim
!!!COM-rismID: pe30004985
!!!CDT:
!!!CNT:
!!!OTL: Anioł z nieba gdy zaśpiewał
!!!PDT:
!!!AGN: Sacred
!!!SMS-siglum: PL-SA
!!!SMS-shelfmark: 368/A VIII 8
!!!SMS-shelfwork: W
!!!SMS-variant:
!!!SMS-altvar:
!!!NIFC-rismSourceID: 1001071520
!!!NIFC-islandoraID:
!!!URL-pdf-islandora:
!!!URL-scan: https://bc.bdsandomierz.pl/dlibra/publication/1672/edition/1640/content @EN{Scan on Cyfrowa Biblioteka Diecezjalna w Sandomierzu} @PL{Skany w portalu Cyfrowa Biblioteka Diecezjalna w Sandomierzu}
!!!ONB-nifc:
!!!AIN: 2 soprn
!!!key: C
**kern	**text	**text	**text	**text	**text	**text	**text	**text	**text	**text	**text	**text	**text	**text	**text	**text	**text	**text	**text	**text	**text	**text	**text	**text	**kern	**text	**text	**text	**text	**text	**text	**text	**text	**text	**text	**text	**text	**text	**text	**text	**text	**text	**text	**text	**text	**text	**text	**text
*part2	*part2	*part2	*part2	*part2	*part2	*part2	*part2	*part2	*part2	*part2	*part2	*part2	*part2	*part2	*part2	*part2	*part2	*part2	*part2	*part2	*part2	*part2	*part2	*part2	*part1	*part1	*part1	*part1	*part1	*part1	*part1	*part1	*part1	*part1	*part1	*part1	*part1	*part1	*part1	*part1	*part1	*part1	*part1	*part1	*part1	*part1	*part1	*part1
*staff2	*staff2	*staff2	*staff2	*staff2	*staff2	*staff2	*staff2	*staff2	*staff2	*staff2	*staff2	*staff2	*staff2	*staff2	*staff2	*staff2	*staff2	*staff2	*staff2	*staff2	*staff2	*staff2	*staff2	*staff2	*staff1	*staff1	*staff1	*staff1	*staff1	*staff1	*staff1	*staff1	*staff1	*staff1	*staff1	*staff1	*staff1	*staff1	*staff1	*staff1	*staff1	*staff1	*staff1	*staff1	*staff1	*staff1	*staff1	*staff1
*	*verse1	*verse2	*verse3	*verse4	*verse5	*verse6	*verse7	*verse8	*verse9	*verse10	*verse11	*verse12	*verse13	*verse14	*verse15	*verse16	*verse17	*verse18	*verse19	*verse20	*verse21	*verse22	*verse23	*verse24	*	*verse1	*verse2	*verse3	*verse4	*verse5	*verse6	*verse7	*verse8	*verse9	*verse10	*verse11	*verse12	*verse13	*verse14	*verse15	*verse16	*verse17	*verse18	*verse19	*verse20	*verse21	*verse22	*verse23
*	*	*v:1	*v:2	*v:3	*v:4	*v:5	*v:6	*v:7	*v:8	*v:9	*v:10	*v:11	*v:12	*v:13	*v:14	*v:15	*v:16	*v:17	*v:18	*v:19	*v:20	*v:21	*v:22	*v:23	*	*v:1	*v:2	*v:3	*v:4	*v:5	*v:6	*v:7	*v:8	*v:9	*v:10	*v:11	*v:12	*v:13	*v:14	*v:15	*v:16	*v:17	*v:18	*v:19	*v:20	*v:21	*v:22	*v:23
*I"[Canto]	*	*	*	*	*	*	*	*	*	*	*	*	*	*	*	*	*	*	*	*	*	*	*	*	*I"[Canto]	*	*	*	*	*	*	*	*	*	*	*	*	*	*	*	*	*	*	*	*	*	*	*
*Isoprn	*	*	*	*	*	*	*	*	*	*	*	*	*	*	*	*	*	*	*	*	*	*	*	*	*Isoprn	*	*	*	*	*	*	*	*	*	*	*	*	*	*	*	*	*	*	*	*	*	*	*
*ICvox	*	*	*	*	*	*	*	*	*	*	*	*	*	*	*	*	*	*	*	*	*	*	*	*	*ICvox	*	*	*	*	*	*	*	*	*	*	*	*	*	*	*	*	*	*	*	*	*	*	*
*IGsolo	*	*	*	*	*	*	*	*	*	*	*	*	*	*	*	*	*	*	*	*	*	*	*	*	*IGsolo	*	*	*	*	*	*	*	*	*	*	*	*	*	*	*	*	*	*	*	*	*	*	*
*>[A,B,B]	*>[A,B,B]	*>[A,B,B]	*>[A,B,B]	*>[A,B,B]	*>[A,B,B]	*>[A,B,B]	*>[A,B,B]	*>[A,B,B]	*>[A,B,B]	*>[A,B,B]	*>[A,B,B]	*>[A,B,B]	*>[A,B,B]	*>[A,B,B]	*>[A,B,B]	*>[A,B,B]	*>[A,B,B]	*>[A,B,B]	*>[A,B,B]	*>[A,B,B]	*>[A,B,B]	*>[A,B,B]	*>[A,B,B]	*>[A,B,B]	*>[A,B,B]	*>[A,B,B]	*>[A,B,B]	*>[A,B,B]	*>[A,B,B]	*>[A,B,B]	*>[A,B,B]	*>[A,B,B]	*>[A,B,B]	*>[A,B,B]	*>[A,B,B]	*>[A,B,B]	*>[A,B,B]	*>[A,B,B]	*>[A,B,B]	*>[A,B,B]	*>[A,B,B]	*>[A,B,B]	*>[A,B,B]	*>[A,B,B]	*>[A,B,B]	*>[A,B,B]	*>[A,B,B]	*>[A,B,B]
*>A	*>A	*>A	*>A	*>A	*>A	*>A	*>A	*>A	*>A	*>A	*>A	*>A	*>A	*>A	*>A	*>A	*>A	*>A	*>A	*>A	*>A	*>A	*>A	*>A	*>A	*>A	*>A	*>A	*>A	*>A	*>A	*>A	*>A	*>A	*>A	*>A	*>A	*>A	*>A	*>A	*>A	*>A	*>A	*>A	*>A	*>A	*>A	*>A
*clefG2	*	*	*	*	*	*	*	*	*	*	*	*	*	*	*	*	*	*	*	*	*	*	*	*	*clefC1	*	*	*	*	*	*	*	*	*	*	*	*	*	*	*	*	*	*	*	*	*	*	*
*k[]	*	*	*	*	*	*	*	*	*	*	*	*	*	*	*	*	*	*	*	*	*	*	*	*	*k[]	*	*	*	*	*	*	*	*	*	*	*	*	*	*	*	*	*	*	*	*	*	*	*
*C:	*	*	*	*	*	*	*	*	*	*	*	*	*	*	*	*	*	*	*	*	*	*	*	*	*C:	*	*	*	*	*	*	*	*	*	*	*	*	*	*	*	*	*	*	*	*	*	*	*
*M3/4	*	*	*	*	*	*	*	*	*	*	*	*	*	*	*	*	*	*	*	*	*	*	*	*	*M3/4	*	*	*	*	*	*	*	*	*	*	*	*	*	*	*	*	*	*	*	*	*	*	*
=1	=1	=1	=1	=1	=1	=1	=1	=1	=1	=1	=1	=1	=1	=1	=1	=1	=1	=1	=1	=1	=1	=1	=1	=1	=1	=1	=1	=1	=1	=1	=1	=1	=1	=1	=1	=1	=1	=1	=1	=1	=1	=1	=1	=1	=1	=1	=1	=1
8cc\L	An-	An-	Pa-	Pa-	Wo-	We-	Za-	Wez-	Stach	I-	Sta-	Mar-	Moy	Wez	Dla	Przyi-	I	We-	Jak	z Be-	Hey	Trzey	Pa-	Wi-	4cc\	A-	Pa-	Pa -	Wo -	We -	Za -	We -	Stach	I-	ſta-	Mar-	Moÿ	We-	Dla	Przyi-	I	We-	Jak	Z Be-	Hey	Trzey	Paſ-	Wi-
8dd\J	.	.	.	.	.	.	.	.	.	.	.	.	.	.	.	.	.	.	.	.	.	.	.	.	.	.	.	.	.	.	.	.	.	.	.	.	.	.	.	.	.	.	.	.	.	.	.	.
4ee\	-ioł	-nioł	-stu-	-ste-	-ła	-zmy	-gray-	-miy	Stach	-gnach	-ry	-ci-	I-	miy	Jo-	-miy	Ma-	-zmiem	od-	-tle-	we-	kro-	-ste-	-ta-	4ee\	-nioł	-ſtusz-	-ste-	-la	-zmy	-gray-	-zmi	Stach	-gnach	-ry	-ci-	I-	-zmii	Jo-	-mi	Ma-	-zniem	od-	-thle-	we-	kro-	-te-	-ta-
8dd\L	z nie-	z nie-	-szko-	-rze	Ku-	z So-	-my	Mi-	tak-	tez	wa-	-nek	-gna-	Mio-	-ze-	od	-tuch-	dla	-da-	-em	-so-	-lo-	-rzow	-my	(8dd\L	z Nie-	-ko-	-rze	Ku	z So-	-my	mi-	tak-	tak-	Wa-	-nek	-gna-	mio-	-ze-	od	-tu-	dla	-da-	-em	-so-	-lo-	-rzow	-my
8ee\J	.	.	.	.	.	.	.	.	.	.	.	.	.	.	.	.	.	.	.	.	.	.	.	.	8ee\J)	.	.	.	.	.	.	.	.	.	.	.	.	.	.	.	.	.	.	.	.	.	.	.
=2	=2	=2	=2	=2	=2	=2	=2	=2	=2	=2	=2	=2	=2	=2	=2	=2	=2	=2	=2	=2	=2	=2	=2	=2	=2	=2	=2	=2	=2	=2	=2	=2	=2	=2	=2	=2	=2	=2	=2	=2	=2	=2	=2	=2	=2	=2	=2	=2
*2\right	*	*	*	*	*	*	*	*	*	*	*	*	*	*	*	*	*	*	*	*	*	*	*	*	*2\right	*	*	*	*	*	*	*	*	*	*	*	*	*	*	*	*	*	*	*	*	*	*	*
2.cc\	-ba	-ba	-wie	sie	-ba	-bą	iuz	-chał	-ze	da	-lek	sie	-chu	-du	-fa	nas	-nie	niey	-wszy	sie	-ło	-wie	sie	cię	2.cc\	-ba	-wie	sie	ba	-bą	iuz	-chał	-że	-ze	-lek	sie	-cu	-du	-fa	nas	-chnie	ni	-wſzy	sie	-ło	-wie	sie	cie
=3	=3	=3	=3	=3	=3	=3	=3	=3	=3	=3	=3	=3	=3	=3	=3	=3	=3	=3	=3	=3	=3	=3	=3	=3	=3	=3	=3	=3	=3	=3	=3	=3	=3	=3	=3	=3	=3	=3	=3	=3	=3	=3	=3	=3	=3	=3	=3	=3
8ee\L	gdy	gdy	co	po-	iuz	mul-	Pa-	kur-	ką-	Pro-	bar-	ze	toc	gar-	czosz	ten	trze-	Ja-	na-	po-	Wy-	przy-	tez	iuz	(8ee\L	gdy	co	po-	iuz	Mul-	Pa-	kur-	Ko-	pro-	bar-	ze	toc	gar-	czosz	ten	trze-	Ja-	na-	po-	wy-	przy-	tez	iuz
8ff\J	.	.	.	.	.	.	.	.	.	.	.	.	.	.	.	.	.	.	.	.	.	.	.	.	8ff\J)	.	.	.	.	.	.	.	.	.	.	.	.	.	.	.	.	.	.	.	.	.	.	.
8gg\L	za-	za-	tu	-lę-	we-	-ta-	-nu	-czo-	-zląt	-sio-	-dzo	Snu	sie	-nu-	we-	to	-ba	-błu-	-sze	-wra-	-krzy-	-ie-	py-	z we-	4gg\	za-	tu	-lę-	z we-	-ta-	-nu	-czą-	-zląt	-sią-	-dzo	snu	sie	-nu-	we-	to	-ba	-błu-	-ſze	-wra-	-krzy-	-ie-	py-	z we-
8ff\J	.	.	.	.	.	.	.	.	.	.	.	.	.	.	.	.	.	.	.	.	.	.	.	.	.	.	.	.	.	.	.	.	.	.	.	.	.	.	.	.	.	.	.	.	.	.	.	.
8ee\L	-spie-	-spie-	spi-	-ka-	-se-	-ne-	te-	-te-	pa-	-te-	za-	por-	bo-	-sze-	-zmie-	tru-	co	-sze-	da-	-ca-	-ku-	-cha-	-ta-	-se-	(8ee\L	-spie-	ſpi-	-ka-	-se-	-ne-	te-	-te-	pa-	-te-	za-	por-	bo-	-ſze-	-znie-	tru-	co	-ſe-	da-	-ca-	-ku-	-cha-	-ta-	-se-
8ff\J	.	.	.	.	.	.	.	.	.	.	.	.	.	.	.	.	.	.	.	.	.	.	.	.	8ff\J)	.	.	.	.	.	.	.	.	.	.	.	.	.	.	.	.	.	.	.	.	.	.	.
=4	=4	=4	=4	=4	=4	=4	=4	=4	=4	=4	=4	=4	=4	=4	=4	=4	=4	=4	=4	=4	=4	=4	=4	=4	=4	=4	=4	=4	=4	=4	=4	=4	=4	=4	=4	=4	=4	=4	=4	=4	=4	=4	=4	=4	=4	=4	=4	=4
2.dd\	-wał	-wał |	-cie |	-li |	-lem |	-czki |	-mu |	-czko |	-re |	-czko |	-snął |	-wał |	-ze |	-czek |	-my |	-nek |	dac |	-czek |	-ry |	-iąc |	-iąc |	-li |	-li |	-lem |	2.dd\	-wał	-cie	-li.	-lem:	-czki:	-mu:	-czko:	-rę	-czko:	-snął:	-wał	-ię:	-czek.:	-my:	-nek:	dac	-czek	-ry:	-iąc:	-iąc.	-li.	-li:	-lem:
=5!|:	=5!|:	=5!|:	=5!|:	=5!|:	=5!|:	=5!|:	=5!|:	=5!|:	=5!|:	=5!|:	=5!|:	=5!|:	=5!|:	=5!|:	=5!|:	=5!|:	=5!|:	=5!|:	=5!|:	=5!|:	=5!|:	=5!|:	=5!|:	=5!|:	=5!|:	=5!|:	=5!|:	=5!|:	=5!|:	=5!|:	=5!|:	=5!|:	=5!|:	=5!|:	=5!|:	=5!|:	=5!|:	=5!|:	=5!|:	=5!|:	=5!|:	=5!|:	=5!|:	=5!|:	=5!|:	=5!|:	=5!|:	=5!|:
*>B	*>B	*>B	*>B	*>B	*>B	*>B	*>B	*>B	*>B	*>B	*>B	*>B	*>B	*>B	*>B	*>B	*>B	*>B	*>B	*>B	*>B	*>B	*>B	*>B	*>B	*>B	*>B	*>B	*>B	*>B	*>B	*>B	*>B	*>B	*>B	*>B	*>B	*>B	*>B	*>B	*>B	*>B	*>B	*>B	*>B	*>B	*>B	*>B
*	*	*	*	*	*	*	*	*	*	*	*	*	*	*	*	*	*	*	*	*	*	*	*	*	*	*v:1	*v:2	*v:3	*v:4	*v:5	*v:6	*v:7	*v:8	*v:9	*v:10	*v:11	*v:12	*v:13	*v:14	*v:15	*v:16	*v:17	*v:18	*v:19	*v:20	*	*	*
8.dd\	y	y	o-	kie-	po-	Du-	zwy-	Dy-	Mis	be-	dał	krzy-	Juz	chle-	wi-	na-	co	ma-	wszys-	Szli	Da-	Kas-	w szo-	Chciy	8dd\	y	o	Kie-	po-	Du-	zwy-	Dy-	Mis	bę-	dał	Krzy-	iuz	Chle-	wod-	na-	co	Ma-	wſzy-	sli	da-	Kaſ-	w ſzo-	chciey
.	.	.	.	.	.	.	.	.	.	.	.	.	.	.	.	.	.	.	.	.	.	.	.	.	8cc\	Paſ-	to	-dy	-dzmy	-dki	-czay	-mek	U-	-dzie	mu	-ka	od	-ba	-ki	-pi-	nam	-sła	-tkim	do	-na	-per	-pie	nas
16cc\	Paſ-	Pa-	-to	-dy	-dzmy	-tki	-czay	-mek	u-	-dzie	mu	-ka	od	-ba	-na	-pi-	nam	-sła	-tkiem	do	-na	-per	-pie	nas	.	.	.	.	.	.	.	.	.	.	.	.	.	.	.	.	.	.	.	.	.	.	.	.
4dd\	-te-	-ste-	sie	ta-	pre-	trą-	Sta-	Szy-	-bo-	mia-	Ku-	szu-	Stra-	krąm-	Fla-	-iay	te-	chle-	piek-	trzo-	da-	Mai-	o-	przy-	4dd\	-te-	sie	ta-	prę-	trą-	sta-	Sy-	-bo-	mia-	Ku-	szu-	stra-	krą-	fla-	-iay	te-	mle-	pie-	trzo-	da-	may-	o-	przy-
4ee\	-rzom	-rzom	nąm	-ką	-tko	-pki	-ry	-mek	-gi	-ło	-ba	-ka	-chu	-kę	-sze	sie	-go	-ba	-nie	-dy	-na	-cher	-ney	-iąc	4ee\	-rzom	nam	-ką	-dko	-pki	-ry	-mek	-gi	-lo	-ba	-ka	-chu	-mkę	-szę	sie	-go	-ka	-knie	-dy	-na	-cher	-ney	-iąc
=6	=6	=6	=6	=6	=6	=6	=6	=6	=6	=6	=6	=6	=6	=6	=6	=6	=6	=6	=6	=6	=6	=6	=6	=6	=6	=6	=6	=6	=6	=6	=6	=6	=6	=6	=6	=6	=6	=6	=6	=6	=6	=6	=6	=6	=6	=6	=6	=6
8.dd\	Kto-	kto-	Bóg	swia-	Pa-	Fu-	da-	y	dwa	na	przez	tur-	mi-	y	y	Sta-	Ma-	dla	po-	gra-	ie-	y	Dzie-	do	8dd\	kto-	Bog	swia-	Pa-	Fu-	da-	y	dwa	na	przez	tur-	mi-	y	y	ſta-	ma-	dla	po-	gra-	ieſz-	y	Dzie-	do
.	.	.	.	.	.	.	.	.	.	.	.	.	.	.	.	.	.	.	.	.	.	.	.	.	8cc\	-rzy	na-	-tłość	-stu-	-ia-	-wac	ty	ſze-	ſnia-	bok	-bu-	-ły	gu-	kieł-	-ru-	-leń-	dzie-	-dzię-	-iąc	-ce	Bal-	-cią-	gor-
16cc\	-rzy	-rzy	na-	-tłosc	-stu-	-ia-	-wac	ty	sze-	Snia-	bok	-bu-	-ły	go-	kieł-	-ru-	-len-	Dzie-	-dzie-	-iąc	-szcze	Bal-	-cio-	gor-	.	.	.	.	.	.	.	.	.	.	.	.	.	.	.	.	.	.	.	.	.	.	.	.
!LO:LB:g=original	!	!	!	!	!	!	!	!	!	!	!	!	!	!	!	!	!	!	!	!	!	!	!	!	!	!	!	!	!	!	!	!	!	!	!	!	!	!	!	!	!	!	!	!	!	!	!	!
4dd\	ſpa-	spa-	-ro-	z nie-	-szko-	-re-	da-	Ją-	-lo-	-da-	Pał-	-ie	Bra-	-mul-	-ba-	-sze-	-kie-	-cią-	-ko-	w du-	dy-	-ta-	-te-	-ne-	4dd\	ſpa-	-ro-	z Nie-	-ſzko-	-re-	da-	Ja-	-lą-	-da-	pał-	-ie	bra-	-muł-	-ba-	-ſze-	-kie-	-cią-	-ko-	w du-	dy-	-ta-	-te-	-ne-
4ee\	-li	-li	-dzieł	-ba	-wie	-czki	-ry	-nek	-gi	-nie	-ką	sie	-chu	-ke	-se	-czku	-go	-tka	-wał	-dy	-na	-zar	-czko	-go	4ee\	-li	-dził	-ba	-wie	-czki	-ry	-nek	-gi	-nie	-ką	sie	-chu	-kę	-sę	-czku	-go	-tka	-wał	-dy	-na	-zar	-czko	-go
=7	=7	=7	=7	=7	=7	=7	=7	=7	=7	=7	=7	=7	=7	=7	=7	=7	=7	=7	=7	=7	=7	=7	=7	=7	=7	=7	=7	=7	=7	=7	=7	=7	=7	=7	=7	=7	=7	=7	=7	=7	=7	=7	=7	=7	=7	=7	=7	=7
4ff\	o-	o-	czem	o-	do	y	Ma-	Cie-	na	Pa-	a	co	le-	y	da-	na	da	sliw	Jo-	po-	wy-	tak	po-	Je-	4ff\	o-	czem	O-	do	y	Ma-	Cie-	na	Pa-	a	co	le-	y	da-	na	da	sliw	Jo-	po-	wy-	tak	po-	Je-
4ee\	-po-	-po-	nie	-glą-	Be-	Skrzy-	-len-	-lo-	o-	-nią-	ze	by	-dwo	gru-	-ru-	fra-	o-	ko-	-zef	-dry-	-spie-	sie	-ka-	-ru-	4ee\	-po	Nie	-glą-	Be-	Skrzy-	-leń-	-lą-	o-	-nia-	ze	by	-dwo	gru-	-ru-	Fra-	O-	ko-	-zef	-dry-	-spie-	sie	-ka-	-ru-
8dd\L	-wie-	-wie-	wie-	-da-	-tle-	-pe-	-kie-	-te-	-fia-	-te-	wrza-	wziąc	Sto-	-sze-	-ie-	-su-	-glą-	-szy-	Sta-	-ga-	-wu-	zwa-	-za-	-sa-	(8dd\L	wie-	wie-	-da-	-thle-	-pe-	-kie-	-te-	-fia-	-te-	wrza-	wziąc	sto-	-ſze-	-ie-	-ſzu-	-glą-	-szy-	ſta-	-ga-	-wu-	zwa-	-za-	-za-
8ee\J	.	.	.	.	.	.	.	.	.	.	.	.	.	.	.	.	.	.	.	.	.	.	.	.	8ee\J)	.	.	.	.	.	.	.	.	.	.	.	.	.	.	.	.	.	.	.	.	.	.	.
=8	=8	=8	=8	=8	=8	=8	=8	=8	=8	=8	=8	=8	=8	=8	=8	=8	=8	=8	=8	=8	=8	=8	=8	=8	=8	=8	=8	=8	=8	=8	=8	=8	=8	=8	=8	=8	=8	=8	=8	=8	=8	=8	=8	=8	=8	=8	=8	=8
2.cc\	-dział	-dział.	-cie.	-li	-em.	-cki	-mu	-czko	-re	-czko	-snoł	miał	-ie	-czek	-my	-nek	-dac	-czek	-ry	-iąc	-iąc	-li	-li	-lem	2.cc\	-dział.	-cie.	-li.	-em:	-czki:	-mu:	-czko.:	-rę:	-czko:	-snął:	miał:	-ię:	-czek:	-my:	-nek:	-dac:	-czek	-ry	-iąc	-iąc	-li	-li	-lem
=9	=9	=9	=9	=9	=9	=9	=9	=9	=9	=9	=9	=9	=9	=9	=9	=9	=9	=9	=9	=9	=9	=9	=9	=9	=9	=9	=9	=9	=9	=9	=9	=9	=9	=9	=9	=9	=9	=9	=9	=9	=9	=9	=9	=9	=9	=9	=9	=9
!LO:TX:t=P:problem=w źródle dźwięki rozpisane, tekst nie powtórzony	!	!	!	!	!	!	!	!	!	!	!	!	!	!	!	!	!	!	!	!	!	!	!	!	!LO:TX:a:t=P:problem=tt. 9-12 zapisane repetycją	!	!	!	!	!	!	!	!	!	!	!	!	!	!	!	!	!	!	!	!	!	!	!
8dd\	y	y	o-	kie-	po-	Du-	zwy-	Dy-	Mis	be-	dał	krzy-	Juz	chle-	wi-	na-	co	ma-	wszys-	Szli	Da-	Kas-	w szo-	Chciy	8dd\yy	y	o	kie-	po-	Du-	zwy-	Dy-	.	bę-	dał	Krzy-	:iuz	Chle-	wod-	na-	co	Ma-	wſzy-	sli	da-	Kaſ-	w ſzo-	chciey
8cc\	Paſ-	Pa-	-to	-dy	-dzmy	-tki	-czay	-mek	u-	-dzie	mu	-ka	od	-ba	-na	-pi-	nam	-sła	-tkiem	do	-na	-per	-pie	nas	8cc\yy	Paſ-	to	-dy	-dzmy	-dki	-czay	-mek	U-	-dzie	mu	-ka	od	-ba	-ki	-pi-	nam	-sła	-tkim	do	-na	-per	-pie	nas
4dd\	-te-	-ste-	sie	ta-	pre-	trą-	Sta-	Szy-	-bo-	mia-	Ku-	szu-	Stra-	krąm-	Fla-	-iay	te-	chle-	piek-	trzo-	da-	mai-	o-	przy-	4dd\yy	-te-	sie	ta-	prę-	trą-	sta-	Sy-	-bo-	mia-	Ku-	szu-	stra-	krą-	fla-	-iay	te-	mle-	pie-	trzo-	da-	may-	o-	przy-
4ee\	-rzom	-rzom	nąm	-ką	-tko	-pki	-ry	-mek	-gi	-ło	-ba	-ka	-chu	-ke	-sze	sie	-go	-ba	-nie	-dy	-na	-cher	-ney	-iąc	4ee\yy	-rzom	nam	-ką	-dko	-pki	-ry	-mek	-gi	-lo	-ba	-ka	-chu	-mkę	-szę	sie	-go	-ka	-knie	-dy	-na	-cher	-ney	-iąc
=10	=10	=10	=10	=10	=10	=10	=10	=10	=10	=10	=10	=10	=10	=10	=10	=10	=10	=10	=10	=10	=10	=10	=10	=10	=10	=10	=10	=10	=10	=10	=10	=10	=10	=10	=10	=10	=10	=10	=10	=10	=10	=10	=10	=10	=10	=10	=10	=10
8dd\	kto-	kto-	Bóg	swia-	Pa-	Fu-	da-	y	dwa	na	przez	tur-	mi-	y	y	Sta-	Ma-	dla	po-	gra-	ie-	y	Dzie-	do	8dd\yy	Kto-	Bog	swia-	Pa-	Fu-	da-	y	dwa	na	przez	tur-	mi-	y	y	ſta-	ma-	dla	po-	gra-	ieſz-	y	Dzie-	do
8cc\	-rzy	-rzy	na-	-tłosc	-stu-	-ia-	-wac	ty	sze-	Snia-	bok	-bu-	-ły	go-	kieł-	-ru-	-len-	Dzie-	-dzie-	-iąc	-szcze	Bal-	-cio-	gor-	8cc\yy	-rzy	na-	-tłość	-stu-	-ia-	-wac	ty	ſze-	ſnia-	bok	-bu-	-ły	gu-	kieł-	-ru-	-leń-	dzie-	-dzię-	-iąc	-ce	Bal-	-cią-	gor-
4dd\	ſpa-	spa-	-ro-	z nie-	-szko-	-re-	da-	Ją-	-lo-	-da-	Pał-	-ie	Bra-	-mul-	-ba-	-sze-	-kie-	-cią-	-ko-	w du-	dy-	-ta-	-te-	-ne-	4dd\yy	ſpa-	-ro-	z Nie-	-ſzko-	-re-	da-	Ja-	-lą-	-da-	pał-	-ie	bra-	-muł-	-ba-	-ſze-	-kie-	-cią-	-ko-	w du-	dy-	-ta-	-te-	-ne-
4ee\	-li	-li	-dził	-ba	-wie	-czki	-ry	-nek	-gi	-nie	-ką	sie	-chu	-ke	-se	-czku	-go	-tka	-wał	-dy	-na	-zar	-czko	-go	4ee\yy	-li	-dził	-ba	-wie	-czki	-ry	-nek	-gi	-nie	-ką	sie	-chu	-ke	-sę	-czku	-go	-tka	-wał	-dy	-na	-zar	-czko	-go
=11	=11	=11	=11	=11	=11	=11	=11	=11	=11	=11	=11	=11	=11	=11	=11	=11	=11	=11	=11	=11	=11	=11	=11	=11	=11	=11	=11	=11	=11	=11	=11	=11	=11	=11	=11	=11	=11	=11	=11	=11	=11	=11	=11	=11	=11	=11	=11	=11
8ff\L	o-	o-	czem	o-	do	y	Ma-	Cie-	na	Pa-	a	co	le-	y	da-	na	da	sliw	Jo-	po-	wy-	tak	po-	Je-	4ff\yy	o-	czem	O-	do	y	Ma-	Cie-	na	Pa-	a	co	le-	y	da-	na	da	sliw	Jo-	po-	wy-	tak	po-	Je-
8ee\J	.	.	.	.	.	.	.	.	.	.	.	.	.	.	.	.	.	.	.	.	.	.	.	.	.	.	.	.	.	.	.	.	.	.	.	.	.	.	.	.	.	.	.	.	.	.	.	.
8dd\L	-po-	-po-	nie-	-glą-	Be-	Skrzy-	-len-	-lo-	o-	-nią-	ze	by	-dwo	gru-	-ru-	fra-	o-	ko-	-zef	-dry-	-spie-	sie	-ka-	-ru-	4ee\yy	-po	Nie	-glą-	Be-	Skrzy-	-leń-	-lą-	o-	-nia-	ze	by	-dwo	gru-	-ru-	Fra-	O-	ko-	-zef	-dry-	-spie-	sie	-ka-	-ru-
8cc\J	.	.	.	.	.	.	.	.	.	.	.	.	.	.	.	.	.	.	.	.	.	.	.	.	.	.	.	.	.	.	.	.	.	.	.	.	.	.	.	.	.	.	.	.	.	.	.	.
8dd\L	-wie-	-wie-	-wie-	-da-	-tle-	-pe-	-kie-	-te-	-fia-	-te-	wrza-	wziąc	Sto-	-sze-	-ie-	-su-	-glą-	-szy-	Sta-	-ga-	-wu-	zwa-	-za-	-sa-	(y8dd\Lyy	wie-	wie-	-da-	-thle-	-pe-	-kie-	-te-	-fia-	-te-	wrza-	wziąc	sto-	-ſze-	-ie-	-ſzu-	-glą-	-szy-	ſta-	-ga-	-wu-	zwa-	-za-	-za-
8ee\J	.	.	.	.	.	.	.	.	.	.	.	.	.	.	.	.	.	.	.	.	.	.	.	.	8ee\J)yy	.	.	.	.	.	.	.	.	.	.	.	.	.	.	.	.	.	.	.	.	.	.	.
=12	=12	=12	=12	=12	=12	=12	=12	=12	=12	=12	=12	=12	=12	=12	=12	=12	=12	=12	=12	=12	=12	=12	=12	=12	=12	=12	=12	=12	=12	=12	=12	=12	=12	=12	=12	=12	=12	=12	=12	=12	=12	=12	=12	=12	=12	=12	=12	=12
2.cc\	-dział	-dział.	-cie	-li	-em.	-cki	-mu	-czko	-re	-czko	-snoł	miał	-ie	-czek	-my	-nek	-dac	-czek	-ry	-iąc	-iąc	-li	-li	-lem	2.cc\yy	-dział.	-cie.	-li.	-em:	-czki:	-mu:	-czko.:	-rę:	-czko:	-snął:	miał:	-ię:	-czek:	-my:	-nek:	-dac:	-czek	-ry	-iąc	-iąc	-li	-li	-lem
==:|!	==:|!	==:|!	==:|!	==:|!	==:|!	==:|!	==:|!	==:|!	==:|!	==:|!	==:|!	==:|!	==:|!	==:|!	==:|!	==:|!	==:|!	==:|!	==:|!	==:|!	==:|!	==:|!	==:|!	==:|!	==:|!	==:|!	==:|!	==:|!	==:|!	==:|!	==:|!	==:|!	==:|!	==:|!	==:|!	==:|!	==:|!	==:|!	==:|!	==:|!	==:|!	==:|!	==:|!	==:|!	==:|!	==:|!	==:|!	==:|!
*-	*-	*-	*-	*-	*-	*-	*-	*-	*-	*-	*-	*-	*-	*-	*-	*-	*-	*-	*-	*-	*-	*-	*-	*-	*-	*-	*-	*-	*-	*-	*-	*-	*-	*-	*-	*-	*-	*-	*-	*-	*-	*-	*-	*-	*-	*-	*-	*-
!!!system-decoration: s1,s2
!!!ENC: Marcin Jachim
!!!END: 2020-11-23
!!!ENC: Marta Lawrence
!!!END: 2021-12-30
